X:1
T:James Gibb editions
T:Through the day thy love has spared us - Barnby
%%score [ ( 1 2 ) ( 3 4 ) ]
L:1/8
Q:1/4=108
M:3/2
K:Eb
V:1 treble nm="Midi_74"
V:2 treble 
V:3 bass nm="Midi_74"
V:4 bass 
V:1
"^Thomas Kelly\n(1769-1855)""^87. 87. 77""^Through the day thy love has spared us""^Joseph Barnby\n(1838-96)" G3 G G2 G2 A2 G2 | %1
 [DB]8 E4 || A3 A A2 G2 c2 c2 | F12 || B3 B B2 =A2 G2 B2 | d8 B4 || e3 d c2 G2 B2 =A2 | (=A4 B8) || %8
 B3 B A2 G2 F2 E2 | c12 ||"^slower" F3 F G2 A2 G3 F | (F4 E8) || A12 | G12 |] %14
V:2
 E3 E E2 E2 E2 E2 | G4 F4 E4 || E3 E F2 G2 G2 FE | (E4- D8) || D3 D F2 E2 D2 G2 | (G4 ^F4) G4 || %6
 G3 F E2 G2 F2 E2 | (E4- D8) || E3 E B,2 B,2 _D2 E2 | E12 || E3 E E2 E2 E3 D | (D4 E8) || E12 | %13
 E12 |] %14
V:3
 B,3 B, B,2 B,2 C2 B,2 | A,8 G,4 || C3 C B,2 B,2 B,2 A,G, | F,12 || F,3 F, D2 C2 B,2 B,2 | %5
 =A,8 B,4 || C3 G, G,2 E2 D2 C2 | (C4 B,8) || B,3 B, E,2 G,2 B,2 _D2 | C12 || C3 C B,2 A,2 B,3 A, | %11
 (A,4 G,8) || C12 | B,12 |] %14
V:4
 E,3 E, E,2 E,2 E,2 E,2 | B,,8 C,4 || C,3 C, D,2 E,2 .A,,2 A,,2 | B,,12 || %4
 B,,3 B,, B,,2 C,2 D,2 D,2 | D,8 G,4 || C,3 C, C,2 C,2 F,2 F,2 | %7
 (B,,8-"^1 Through the day Thy love hath spared us,\nNow we lay us down to rest:\nThrough the silent watches guard us,\nLet no foe our peace molest.\nJesus, Thou our Guardian be;\nSweet it is to trust in Thee.\n\n2 Pilgrims here on earth and strangers,\nDwelling in the midst of foes,\nUs and ours preserve from dangers;\nIn Thine arms may we repose\nAnd, when life's short day is past,\nRest with Thee in heaven at last." !courtesy!_A,,4) || %8
 G,,3 G,, G,,2 G,,2 G,,2 G,,2 | A,,12 || A,,3 A,, B,,2 C,2 B,,3 B,, | (B,,4 E,8) || A,,12 | E,12 |] %14

